X:115
T:TENNESSEE WALTZ
C:Basic Version
M:3/4
L:1/8
Q:1/8=310
K:C
CD|:"C"E2G2CD|"Em"E2G2cd|"C7"e2e2d2|"F"c2A2cd|
"C"c2G2E2|1 "Am"A2G2E2|"Dm"D6-|"G7"D4CD:|2"G7"F2E2D2|\
"C"C6-|C4cd|
|"C"e2g2e2|"E7"d4ed|"F"d2c2A2|"C"G4cd|c2G2E2|\
"Am"A2G2E2|"Dm"D6|"G7"D4CD|
"C"E2G2CD|"Em"E2G2cd|"C7"e2e2d2|"F"c2A2cd|\
"C"c2G2E2|"G7"F2E2D2|"C"C6||
